X:1
T:We Wish You A Merry Christmas
T:We Wish You A Merry Christmas
T:And A Happy New Year God Bless All Us
C:Traditional French Carol
%%score { 1 | 2 }
L:1/8
M:3/4
K:E
V:1 treble nm="Piano" snm="Pno."
V:2 bass 
V:1
 B,2 | E2 EF ED | C2 C2 C2 | F2 FG FE | D2 B,2 B,2 | G2 GA GF | E2 C2 B,B, | C2 F2 D2 | E4 B,2 | %9
 E2 E2 E2 | D4 D2 | E2 D2 C2 | B,4 F2 | G2 F2 E2 | B2 B,2 B,B, | C2 F2 D2 | E4 B,2 | E2 EF ED | %18
 C2 C2 C2 | F2 FG FE | D2 B,2 B,2 | G2 GA GF | E2 C2 B,B, | C2 F2 D2 | E6 |] %25
V:2
 E,2 |"E" E,,G,, B,,E, B,,G,, |"A" A,,C, E,A, E,C, |"F#" F,,^A,, C,F, C,A,, |"B" B,,D, F,B, F,D, | %5
"G#" G,,^B,, D,G, D,B,, |"C#m" C,E, G,C G,E, |"A" A,,C, E,A, E,C, |"E" [E,G,B,]6 | %9
"E" E,,G,, B,,E, B,,G,, |"B" B,,D, F,B, F,D, |"A" A,,C, E,A, E,C, |"E" E,,G,, B,,E, B,,G,, | %13
"C#m" C,E, G,C G,E, |"G#m" G,,B,, D,G, D,B,, |"A" [C,E,A,]6 |"E" [E,G,B,]6 | %17
"E" E,,G,, B,,E, B,,G,, |"A" [C,E,A,]6 |"F#" F,,^A,, C,F, C,A,, |"B" [D,F,B,]6 | %21
"G#" G,,^B,, D,G, D,B,, |"C#m" [C,E,G,]6 |"A" [C,E,A,]6 |"E" [E,G,B,]6 |] %25

